vectors/ftx/ftx.svg

<svg xmlns="http://www.w3.org/2000/svg" width="180" height="180"><path d="M59 28v33h102V28H59z" fill="#00a7c3"/><path d="M19 74v32h33V74H19m40 0v32h73V74H59z" fill="#5fcbdf"/><path d="M132 74v32l.722-.778.028-.528.194-.805.028-.917L133 101V79l-.028-1.972-.028-.917-.194-.805-.028-.528L132 74M19 106l.778.722.528.028.805.194.917.028L24 107h28l-.778-.722-.528-.028-.805-.194-.917-.028L47 106H19m40 0l.778.722.528.028.805.194.917.028L63 107h58l-.778-.722-.528-.028-.805-.194-.917-.028L117 106H59m63 0l1 1-1-1m2 0l1 1-1-1m2 0l1 1-1-1m2 0l1 1-1-1m2 0l1 1-1-1m-71 13v33h33v-33H59z" fill="#adecf4"/></svg>

<svg xmlns="http://www.w3.org/2000/svg" width="180" height="180">
<path style="fill:#00a7c3; stroke:none;" d="M59 28L59 61L161 61L161 28L59 28z"/>
<path style="fill:#5fcbdf; stroke:none;" d="M19 74L19 106L52 106L52 74L19 74M59 74L59 106L132 106L132 74L59 74z"/>
<path style="fill:#adecf4; stroke:none;" d="M132 74L132 106L132.722 105.222L132.75 104.694L132.944 103.889L132.972 102.972L133 101L133 100L133 98L133 82L133 80L133 79L132.972 77.0278L132.944 76.1111L132.75 75.3056L132.722 74.7778L132 74M19 106L19.7778 106.722L20.3056 106.75L21.1111 106.944L22.0278 106.972L24 107L26 107L29 107L52 107L51.2222 106.278L50.6944 106.25L49.8889 106.056L48.9722 106.028L47 106L45 106L42 106L19 106M59 106L59.7778 106.722L60.3056 106.75L61.1111 106.944L62.0278 106.972L63 107L64 107L66 107L77 107L121 107L120.222 106.278L119.694 106.25L118.889 106.056L117.972 106.028L117 106L116 106L114 106L103 106L59 106M122 106L123 107L122 106M124 106L125 107L124 106M126 106L127 107L126 106M128 106L129 107L128 106M130 106L131 107L130 106M59 119L59 152L92 152L92 119L59 119z"/>
</svg>
